X:5079
T:Perth Waltz,The
O:england
M:3/4
L:1/8
C:Trad.
R:Waltz
K:D
|:(3ABc|"D"d3AF2|F3ED2|"G"B,3A,G,2|"D"A,4 D>E|
F3ED2|d3AF2|"E7"E6|"A7"E4 (3ABc|"D"d3AF2|
F3ED2|"G"B,3A,G,2|"D"A,4 D>E|F3Ad2|"A7"FG3E2|"D"D6|D4:||:F>G|
"D"A3df2|a3fd2|"G"d3BG2|"D"A4F>G|A3df2|a3fd2|
"E7"e6|"A7"e4F>B|"D"A3df2|a3fd2|"G"d3BG2|"D"A4d>e|fa3f2|
"A7"g3ec2|"D"d6|d4:|


